packages/match-logos/mono/svg/shopify.svg

<svg fill="none" height="40" viewBox="0 0 141 40" width="141" xmlns="http://www.w3.org/2000/svg" xmlns:xlink="http://www.w3.org/1999/xlink"><clipPath id="a"><path d="m0 0h141v40h-141z"/></clipPath><g clip-path="url(#a)"><path d="m41.5 28.1c.9.4 2.4 1.1 3.9 1 1.3 0 2.1-.7 2.1-1.6s-.5-1.4-2-2.3c-1.8-1-3.1-2.5-3.1-4.4 0-3.3 2.9-5.7 7-5.7 1.8 0 3.2.3 4 .8l-1.1 3.4c-.7-.3-1.7-.7-3-.7s-2.2.6-2.2 1.6c0 .8.6 1.3 1.8 2 1.9 1.1 3.4 2.5 3.4 4.5 0 3.8-3.1 5.9-7.3 5.9-2 0-3.8-.6-4.7-1.2zm11.8 4.3 4.6-24.30001h4.7l-1.8 9.50001h.1c1.3-1.5 2.9-2.5 5-2.5 2.5 0 3.9 1.6 3.9 4.3 0 .8-.1 2.1-.3 3.1l-1.9 9.8h-4.7l1.8-9.5c.1-.7.2-1.4.2-2.1 0-1-.4-1.8-1.5-1.8-1.5 0-3.1 1.9-3.7 5.1l-1.6 8.3h-4.8zm33.7-10.6c0 5.9-3.8 10.9-9.4 10.9-4.3 0-6.5-3-6.5-6.6 0-5.7 3.8-10.9 9.5-10.9 4.4 0 6.4 3.2 6.4 6.6zm-11.1 4.2c0 1.7.7 3.1 2.3 3.1 2.5 0 3.9-4.5 3.9-7.4 0-1.4-.6-2.9-2.2-2.9-2.6 0-4 4.4-4 7.2zm10 13.1 3.3-17.4c.4-2 .8-4.6 1-6.3h4.2l-.3 2.6h.1c1.3-1.8 3.1-2.8 5-2.8 3.5 0 4.9 2.9 4.9 6.1 0 5.8-3.6 11.5-9.2 11.5-1.2 0-2.2-.3-2.8-.6h-.1l-1.3 7h-4.8zm6.8-10.7c.5.4 1.1.7 2 .7 2.6 0 4.5-4.4 4.5-7.4 0-1.3-.4-2.6-1.9-2.6-1.7 0-3.2 2-3.7 4.9zm11.5 4 3.2-16.8h4.8l-3.2 16.8zm6.1-18.9c-1.3 0-2.2-1-2.2-2.4 0-1.50001 1.2-2.80001 2.7-2.80001 1.4 0 2.4 1 2.4 2.40001 0 1.8-1.3 2.8-2.9 2.8zm2.7 18.9 2.5-13.3h-2.2l.7-3.6h2.2l.1-.8c.4-2 1.1-4 2.8-5.40001 1.3-1.1 3-1.6 4.6-1.6 1.2 0 2 .2 2.6.4l-.9 3.70001c-.4-.1-.9-.2-1.5-.2-1.6 0-2.5 1.4-2.8 3.1l-.2.8h3.3l-.7 3.6h-3.3l-2.5 13.3zm17.1-16.9.8 7.6c.2 1.7.3 2.9.4 4h.1c.4-1.1.7-2.2 1.4-4l2.9-7.5h5l-5.9 12.4c-2.1 4.3-4.1 7.4-6.2 9.4-1.7 1.6-3.7 2.4-4.6 2.6l-1.3-4c.8-.3 1.8-.7 2.7-1.3 1.1-.8 2-1.8 2.6-2.9.1-.2.2-.4.1-.8l-2.9-15.4h4.9zm-106.7-10.80001-1.2.4c-.5-1.5-1.2-2.6-2.1-3.3-.7-.5-1.4-.7-2.2-.6-.2-.200002-.3-.400002-.5-.600002-.9-.7-2-.8-3.3-.3-4 1.500002-5.7 6.700002-6.3 9.200002l-3.5 1.10001s-.8.2-1 .5c-.3.2-.3.9-.3.9l-3 22.9 22.2 4.2 1.8-34.40001c-.3-.1-.5 0-.6 0zm-5.6 1.7-3.9 1.2c.5-2 1.5-4.1 3.4-4.8.4 1 .5 2.4.5 3.6zm-3.3-4.8c.8-.3 1.4-.3 1.9 0-2.5 1.1-3.6 4-4.1 6.5l-3.1 1c.7-2.5 2.3-6.4 5.3-7.5zm2.2 16.80001-.6-.3c-.2-.1-.5-.2-.8-.2-.3-.1-.6-.1-.9-.2h-1c-.3 0-.6.1-.9.2-.2.1-.5.2-.6.4-.2.2-.3.3-.4.5s-.2.4-.2.7c0 .2 0 .4.1.6s.2.4.3.5c.1.2.3.3.5.5s.5.4.8.6c.4.3.9.6 1.3.9l1.2 1.2c.3.5.6 1 .8 1.6s.3 1.2.3 2c-.1 1.2-.3 2.2-.7 3s-1 1.5-1.7 1.9c-.7.5-1.5.7-2.3.9-.8.1-1.7.1-2.6-.1-.4-.1-.8-.2-1.2-.4s-.7-.3-1.1-.5l-.9-.6c-.3-.2-.5-.4-.6-.6l1-3.4c.2.1.4.3.6.5s.5.3.8.5.6.3.9.4.7.2 1 .3h.8c.2-.1.4-.1.6-.3.2-.1.3-.3.4-.5s.1-.4.1-.6 0-.5-.1-.7l-.3-.6c-.1-.2-.3-.4-.5-.6s-.5-.4-.8-.7c-.4-.3-.8-.6-1.1-.9s-.6-.7-.8-1.1-.4-.8-.5-1.3-.2-1-.1-1.5c0-.9.2-1.7.5-2.5s.7-1.4 1.3-2 1.2-1.1 2-1.5 1.7-.7 2.7-.8c.5-.1.9-.1 1.3-.1s.8 0 1.2.1c.4 0 .7.1 1 .2s.6.2.8.3zm2.4-12.40001v-.5c0-1.2-.2-2.2-.5-3 .3 0 .6.1.8.3.7.5 1.2 1.5 1.6 2.6zm11.5 1.6s0-.2-.1-.2c-.1-.1-.2-.1-.2-.1l-3.1-.2-2.3-2.3c-.1-.1-.2-.1-.3-.1l-1.7 34.40001 12.1-2.6z" fill="#1f304c"/></g></svg>

<svg width="141" height="40" viewBox="0 0 141 40" fill="none" xmlns="http://www.w3.org/2000/svg">
<g clip-path="url(#clip0)">
<path d="M41.5 28.1C42.4 28.5 43.9 29.2 45.4 29.1C46.7 29.1 47.5 28.4 47.5 27.5C47.5 26.6 47 26.1 45.5 25.2C43.7 24.2 42.4 22.7 42.4 20.8C42.4 17.5 45.3 15.1 49.4 15.1C51.2 15.1 52.6 15.4 53.4 15.9L52.3 19.3C51.6 19 50.6 18.6 49.3 18.6C48 18.6 47.1 19.2 47.1 20.2C47.1 21 47.7 21.5 48.9 22.2C50.8 23.3 52.3 24.7 52.3 26.7C52.3 30.5 49.2 32.6 45 32.6C43 32.6 41.2 32 40.3 31.4L41.5 28.1ZM53.3 32.4L57.9 8.09999H62.6L60.8 17.6H60.9C62.2 16.1 63.8 15.1 65.9 15.1C68.4 15.1 69.8 16.7 69.8 19.4C69.8 20.2 69.7 21.5 69.5 22.5L67.6 32.3H62.9L64.7 22.8C64.8 22.1 64.9 21.4 64.9 20.7C64.9 19.7 64.5 18.9 63.4 18.9C61.9 18.9 60.3 20.8 59.7 24L58.1 32.3H53.3V32.4ZM87 21.8C87 27.7 83.2 32.7 77.6 32.7C73.3 32.7 71.1 29.7 71.1 26.1C71.1 20.4 74.9 15.2 80.6 15.2C85 15.2 87 18.4 87 21.8ZM75.9 26C75.9 27.7 76.6 29.1 78.2 29.1C80.7 29.1 82.1 24.6 82.1 21.7C82.1 20.3 81.5 18.8 79.9 18.8C77.3 18.8 75.9 23.2 75.9 26ZM85.9 39.1L89.2 21.7C89.6 19.7 90 17.1 90.2 15.4H94.4L94.1 18H94.2C95.5 16.2 97.3 15.2 99.2 15.2C102.7 15.2 104.1 18.1 104.1 21.3C104.1 27.1 100.5 32.8 94.9 32.8C93.7 32.8 92.7 32.5 92.1 32.2H92L90.7 39.2H85.9V39.1ZM92.7 28.4C93.2 28.8 93.8 29.1 94.7 29.1C97.3 29.1 99.2 24.7 99.2 21.7C99.2 20.4 98.8 19.1 97.3 19.1C95.6 19.1 94.1 21.1 93.6 24L92.7 28.4ZM104.2 32.4L107.4 15.6H112.2L109 32.4H104.2ZM110.3 13.5C109 13.5 108.1 12.5 108.1 11.1C108.1 9.59999 109.3 8.29999 110.8 8.29999C112.2 8.29999 113.2 9.29999 113.2 10.7C113.2 12.5 111.9 13.5 110.3 13.5ZM113 32.4L115.5 19.1H113.3L114 15.5H116.2L116.3 14.7C116.7 12.7 117.4 10.7 119.1 9.29999C120.4 8.19999 122.1 7.69999 123.7 7.69999C124.9 7.69999 125.7 7.89999 126.3 8.09999L125.4 11.8C125 11.7 124.5 11.6 123.9 11.6C122.3 11.6 121.4 13 121.1 14.7L120.9 15.5H124.2L123.5 19.1H120.2L117.7 32.4H113ZM130.1 15.5L130.9 23.1C131.1 24.8 131.2 26 131.3 27.1H131.4C131.8 26 132.1 24.9 132.8 23.1L135.7 15.6H140.7L134.8 28C132.7 32.3 130.7 35.4 128.6 37.4C126.9 39 124.9 39.8 124 40L122.7 36C123.5 35.7 124.5 35.3 125.4 34.7C126.5 33.9 127.4 32.9 128 31.8C128.1 31.6 128.2 31.4 128.1 31L125.2 15.6H130.1V15.5ZM23.4 4.69999L22.2 5.09999C21.7 3.59999 21 2.49999 20.1 1.79999C19.4 1.29999 18.7 1.09999 17.9 1.19999C17.7 0.999988 17.6 0.799988 17.4 0.599988C16.5 -0.100012 15.4 -0.200012 14.1 0.299988C10.1 1.79999 8.4 6.99999 7.8 9.49999L4.3 10.6C4.3 10.6 3.5 10.8 3.3 11.1C3 11.3 3 12 3 12L0 34.9L22.2 39.1L24 4.69999C23.7 4.59999 23.5 4.69999 23.4 4.69999ZM17.8 6.39999L13.9 7.59999C14.4 5.59999 15.4 3.49999 17.3 2.79999C17.7 3.79999 17.8 5.19999 17.8 6.39999ZM14.5 1.59999C15.3 1.29999 15.9 1.29999 16.4 1.59999C13.9 2.69999 12.8 5.59999 12.3 8.09999L9.2 9.09999C9.9 6.59999 11.5 2.69999 14.5 1.59999ZM16.7 18.4L16.1 18.1C15.9 18 15.6 17.9 15.3 17.9C15 17.8 14.7 17.8 14.4 17.7H13.4C13.1 17.7 12.8 17.8 12.5 17.9C12.3 18 12 18.1 11.9 18.3C11.7 18.5 11.6 18.6 11.5 18.8C11.4 19 11.3 19.2 11.3 19.5C11.3 19.7 11.3 19.9 11.4 20.1C11.5 20.3 11.6 20.5 11.7 20.6C11.8 20.8 12 20.9 12.2 21.1C12.4 21.3 12.7 21.5 13 21.7C13.4 22 13.9 22.3 14.3 22.6L15.5 23.8C15.8 24.3 16.1 24.8 16.3 25.4C16.5 26 16.6 26.6 16.6 27.4C16.5 28.6 16.3 29.6 15.9 30.4C15.5 31.2 14.9 31.9 14.2 32.3C13.5 32.8 12.7 33 11.9 33.2C11.1 33.3 10.2 33.3 9.3 33.1C8.9 33 8.5 32.9 8.1 32.7C7.7 32.5 7.4 32.4 7 32.2L6.1 31.6C5.8 31.4 5.6 31.2 5.5 31L6.5 27.6C6.7 27.7 6.9 27.9 7.1 28.1C7.3 28.3 7.6 28.4 7.9 28.6C8.2 28.8 8.5 28.9 8.8 29C9.1 29.1 9.5 29.2 9.8 29.3H10.6C10.8 29.2 11 29.2 11.2 29C11.4 28.9 11.5 28.7 11.6 28.5C11.7 28.3 11.7 28.1 11.7 27.9C11.7 27.7 11.7 27.4 11.6 27.2L11.3 26.6C11.2 26.4 11 26.2 10.8 26C10.6 25.8 10.3 25.6 10 25.3C9.6 25 9.2 24.7 8.9 24.4C8.6 24.1 8.3 23.7 8.1 23.3C7.9 22.9 7.7 22.5 7.6 22C7.5 21.5 7.4 21 7.5 20.5C7.5 19.6 7.7 18.8 8 18C8.3 17.2 8.7 16.6 9.3 16C9.9 15.4 10.5 14.9 11.3 14.5C12.1 14.1 13 13.8 14 13.7C14.5 13.6 14.9 13.6 15.3 13.6C15.7 13.6 16.1 13.6 16.5 13.7C16.9 13.7 17.2 13.8 17.5 13.9C17.8 14 18.1 14.1 18.3 14.2L16.7 18.4ZM19.1 5.99999V5.49999C19.1 4.29999 18.9 3.29999 18.6 2.49999C18.9 2.49999 19.2 2.59999 19.4 2.79999C20.1 3.29999 20.6 4.29999 21 5.39999L19.1 5.99999ZM30.6 7.59999C30.6 7.59999 30.6 7.39999 30.5 7.39999C30.4 7.29999 30.3 7.29999 30.3 7.29999L27.2 7.09999L24.9 4.79999C24.8 4.69999 24.7 4.69999 24.6 4.69999L22.9 39.1L35 36.5L30.6 7.59999Z" fill="#1F304C"/>
</g>
<defs>
<clipPath id="clip0">
<rect width="141" height="40" fill="white"/>
</clipPath>
</defs>
</svg>
